icon-svg/ring-spotlight-cam.svg

<?xml version="1.0" encoding="UTF-8"?>
<svg width="24px" fill="#44739e" height="24px" viewBox="0 0 24 24" version="1.1" xmlns="http://www.w3.org/2000/svg" xmlns:xlink="http://www.w3.org/1999/xlink">
            <path d="m 12.199219,2.7792969 c -3.0600002,-0.01 -3.0301565,0.1214844 -3.4101565,0.2714843 L 4.859375,4.7109375 c -1.12,0.4 0.8310938,0.3499219 2.6210938,0.4199219 4.2600002,0.16 4.1389062,-0.00125 4.8789062,-0.28125 l 3.679687,-1.6699219 c 0.300001,-0.28 0.430157,-0.4003906 -3.839843,-0.4003906 z m 4.351562,0.3007812 V 3.140625 L 16.5,3.1992188 16.080078,3.4296875 15.679688,3.6308594 13.230469,4.7597656 12.550781,5.0898438 12.019531,5.2890625 11.630859,5.359375 11.25,5.4199219 l -0.320312,0.019531 -0.279297,0.021484 -0.28125,0.00977 H 9.9902344 9.0292969 L 5.5605469,5.3691406 4.7402344,5.3007812 4.5292969,5.2304688 4.4394531,5.1601562 4.4101562,5.0605469 4.3808594,4.9199219 4.3300781,5.1191406 v 0.140625 l 0.2695313,1.6894532 0.03125,0.089844 0.1894531,0.171875 0.2402344,0.029297 L 5.390625,7.25 10.300781,7.4394531 h 0.109375 0.320313 l 0.480469,-0.039063 0.408203,-0.070312 0.511718,-0.089844 0.388672,-0.089844 1.419922,9.9003899 -0.228515,0.05859 -0.230469,0.05078 -0.191407,0.03906 -0.179687,0.04102 -0.21875,0.03906 -0.230469,0.03125 -0.220703,-0.0098 h -0.279297 -0.210937 -0.128907 l -0.169921,-0.01172 -0.169922,-0.0098 -0.371094,-0.03906 -4.3496094,-0.359375 -0.089844,-0.01172 -0.1503907,-0.0293 -0.1601562,-0.06055 -0.089844,-0.03906 L 4.820312,7.210859 4.730468,7.150312 4.630859,7.0389839 l 1.5292968,9.6308591 0.050781,0.320312 0.058594,0.06055 0.1308594,0.08008 0.1503906,0.05859 0.4101563,0.05078 4.6582039,0.458985 h 0.0918 0.359374 0.259766 0.289063 0.18164 l 0.21875,-0.03906 0.220703,-0.0293 0.259766,-0.05078 0.279297,-0.07031 0.25,-0.06055 0.371094,-0.138672 L 15,16.990234 l 0.810547,-0.460937 0.910156,-0.568359 0.919922,-0.570313 0.208984,-0.130859 0.230469,-0.160157 0.06055,-0.04883 0.01953,-0.06055 z m 1.609375,2.3105469 c 0.03338,0.010525 0.06659,0.021595 0.09961,0.033203 -0.01297,-0.00789 -0.02599,-0.015702 -0.03906,-0.023437 z m 0.09961,0.033203 c 1.196452,0.647515 1.963701,1.8770428 2.019531,3.2363281 0.146255,1.5674349 -0.699428,3.0600459 -2.119141,3.7402349 l 0.390625,-0.09961 c 1.542645,-0.678036 2.383158,-2.359062 2,-3.9999999 C 20.463741,6.9571126 19.549841,5.8094789 18.259766,5.423828 Z M 17.369141,5.417968 C 17.245977,5.4122256 17.122552,5.4161441 17,5.4296875 l 1,6.8300785 c 2,-0.84 2.250156,-3.9507035 1.410156,-5.4707035 C 19.040437,5.9857278 18.25263,5.456502 17.369141,5.417968 Z M 5.4492188,7.6308594 6.8398438,16.410156 11.400391,16.740234 10.080078,7.8691406 5.5292969,7.6308594 Z m 2.2933363,1.3278034 c 1.1790411,-0.034419 1.6846593,0.6642036 1.9371324,1.7280782 0.15,1.2 -0.1833935,1.99514 -1.1092831,2.199254 -0.6766943,0.04021 -1.6439483,-0.748635 -1.859421,-1.903033 -0.15,-1.09 0.3253102,-1.8201859 1.0315717,-2.0242992 z m 0.08017,0.4078468 C 7.2773042,9.5074449 6.989609,10.119687 7.099609,10.929688 7.2417918,11.693567 7.7338142,12.317438 8.490234,12.439453 9.1249079,12.337396 9.4187818,11.639639 9.2987818,10.759639 9.0949874,9.908849 8.6339521,9.3393833 7.8227247,9.3665096 Z M 8.09375,10.470703 c 0.00543,-4.05e-4 0.01,0 0.015625,0 0.2458893,-0.02323 0.3815996,0.168111 0.4199678,0.415292 0.082617,0.235981 -0.027383,0.490097 -0.2402803,0.514396 -0.2366128,0.02433 -0.4269525,-0.227801 -0.4394531,-0.470703 0,-0.242188 0.075801,-0.446431 0.2441406,-0.458985 z m 9.826172,5.189453 -3.369141,2.039063 -0.511719,0.191406 -0.769531,0.169922 -0.61914,0.05859 h -0.839844 l -5.0410158,-0.539063 1.2011719,1.179688 0.1992188,0.140625 7.5195311,0.529297 h 0.380859 l 0.179688,-0.03906 0.109375,-0.101563 0.101563,-0.179687 z m -9.4101564,3.660156 c 0.6373355,1.504259 2.1368834,2.459153 3.7695314,2.400391 1.303416,-0.09721 2.488691,-0.7915 3.210937,-1.880859 z"/>

</svg>

<svg xmlns="http://www.w3.org/2000/svg" fill="#44739e" viewBox="0 0 24 24"><path d="M12.1992 2.7793c-3.06-.01-3.0301.1215-3.4101.2715L4.8594 4.7109c-1.12.4.831.35 2.621.42 4.26.16 4.139-.0013 4.879-.2813l3.6797-1.67c.3-.28.4301-.4003-3.8399-.4003m4.3516.3008v.0605l-.0508.0586-.42.2305-.4003.2012-2.4492 1.1289-.6797.33-.5313.1993-.3886.0703-.3809.0605-.3203.0196-.2793.0214-.2813.0098H9.0293l-3.4688-.1016-.8203-.0683-.2109-.0703-.0898-.0703-.0293-.0997-.0293-.1406-.0508.1992v.1407l.2695 1.6894.0313.0899.1894.1718.2402.0293.3301.0098 4.9102.1895h.4297l.4804-.0391.4082-.0703.5118-.0899.3886-.0898 1.42 9.9004-.2286.0586-.2304.0507-.1914.0391-.1797.041-.2188.039-.2304.0313-.2207-.0098h-.6192l-.17-.0117-.1698-.0098-.3711-.039-4.3496-.3594-.0899-.0117-.1504-.0293-.1601-.0606-.0899-.039-1.4492-9.5293-.0898-.0606-.0996-.1113 1.5293 9.6308.0507.3204.0586.0605.1309.08.1504.0587.4101.0508 4.6582.459h1.1817l.2187-.0391.2207-.0293.2598-.0508.2793-.0703.25-.0606.371-.1386.5997-.3203.8105-.4609.9102-.5684.92-.5703.209-.1308.2304-.1602.0605-.0488.0196-.0606zm1.6094 2.3105q.05.0158.0996.0332l-.039-.0234zm.0996.0332a3.86 3.86 0 0 1 2.0195 3.2364 3.76 3.76 0 0 1-2.1191 3.7402l.3906-.0996c1.5426-.678 2.3831-2.359 2-4a3.22 3.22 0 0 0-2.291-2.877m-.8907-.0058A2.36 2.36 0 0 0 17 5.4297l1 6.83c2-.84 2.2502-3.9506 1.4102-5.4706a2.36 2.36 0 0 0-2.041-1.3711m-11.92 2.2129 1.3906 8.7793 4.5606.33-1.3203-8.871-4.5508-.2383Zm2.2934 1.3278c1.179-.0345 1.6846.6642 1.937 1.728.15 1.2-.1833 1.9952-1.1092 2.1993-.6767.0402-1.644-.7486-1.8594-1.903-.15-1.09.3253-1.8202 1.0316-2.0243m.0801.4078c-.5454.141-.833.7532-.723 1.5632.142.7639.6341 1.3877 1.3905 1.5098.6347-.1021.9286-.7999.8086-1.6799-.2038-.8508-.6648-1.4202-1.476-1.393m.271 1.1042c.0055-.0004.01 0 .0157 0 .2459-.0232.3816.1681.42.4153.0826.236-.0274.49-.2403.5144-.2367.0243-.427-.2278-.4395-.4707 0-.2422.0758-.4464.2442-.459m9.8262 5.1895-3.3691 2.039-.5117.1914-.7696.17-.6191.0585h-.8399l-5.041-.539 1.2012 1.1797.1992.1406 7.5196.5293h.3808l.1797-.039.1094-.1016.1015-.1797zM8.51 19.3204a3.94 3.94 0 0 0 3.7695 2.4004 4.23 4.23 0 0 0 3.211-1.8809z"/></svg>
